build/svg/cmd/sc_halfsphere.svg

<?xml version="1.0" encoding="UTF-8" standalone="no"?>
<svg
   xmlns:dc="http://purl.org/dc/elements/1.1/"
   xmlns:cc="http://creativecommons.org/ns#"
   xmlns:rdf="http://www.w3.org/1999/02/22-rdf-syntax-ns#"
   xmlns:svg="http://www.w3.org/2000/svg"
   xmlns="http://www.w3.org/2000/svg"
   xmlns:sodipodi="http://sodipodi.sourceforge.net/DTD/sodipodi-0.dtd"
   xmlns:inkscape="http://www.inkscape.org/namespaces/inkscape"
   height="16"
   width="16"
   version="1.1"
   id="svg13"
   sodipodi:docname="sc_halfsphere.svg"
   inkscape:export-filename="/home/jupiter007/Libreoffice yaru theme fullcolor/build/cmd/sc_halfsphere.png"
   inkscape:export-xdpi="96"
   inkscape:export-ydpi="96"
   inkscape:version="0.92.5 (2060ec1f9f, 2020-04-08)">
  <metadata
     id="metadata19">
    <rdf:RDF>
      <cc:Work
         rdf:about="">
        <dc:format>image/svg+xml</dc:format>
        <dc:type
           rdf:resource="http://purl.org/dc/dcmitype/StillImage" />
      </cc:Work>
    </rdf:RDF>
  </metadata>
  <defs
     id="defs17" />
  <sodipodi:namedview
     pagecolor="#ffffff"
     bordercolor="#666666"
     borderopacity="1"
     objecttolerance="10"
     gridtolerance="10"
     guidetolerance="10"
     inkscape:pageopacity="0"
     inkscape:pageshadow="2"
     inkscape:window-width="1920"
     inkscape:window-height="1011"
     id="namedview15"
     showgrid="false"
     inkscape:zoom="29.5"
     inkscape:cx="4.8960378"
     inkscape:cy="8.5633698"
     inkscape:window-x="0"
     inkscape:window-y="32"
     inkscape:window-maximized="1"
     inkscape:current-layer="svg13" />
  <linearGradient
     id="a"
     gradientTransform="matrix(0.74999998,0,0,0.8333368,-0.25,-861.47214)"
     gradientUnits="userSpaceOnUse"
     x1="3"
     x2="15"
     y1="1045.3622"
     y2="1045.3622">
    <stop
       offset="0"
       stop-color="#b3b3b3"
       id="stop2" />
    <stop
       offset="1"
       stop-color="#232629"
       id="stop4" />
  </linearGradient>
  <path
     style="fill:#000000;fill-rule:evenodd;fill-opacity:1;stroke:#000000;opacity:0.6;stroke-width:2;stroke-miterlimit:4;stroke-dasharray:none;stroke-linejoin:round"
     d="M 8 3 A 5.9999998 3.3333472 0 0 0 2 6.3339844 A 5.9999998 3.3333472 0 0 0 2.3046875 7.3710938 C 2.1712923 7.1464409 2.0678308 6.914725 2.0234375 6.671875 C 2.1843627 10.194056 4.7899978 13 8 13 C 11.210002 13 13.815637 10.194056 13.976562 6.671875 C 13.930773 6.9223622 13.821945 7.161546 13.681641 7.3925781 A 5.9999998 3.3333472 0 0 0 14 6.3339844 A 5.9999998 3.3333472 0 0 0 8 3 z M 2.5839844 7.7558594 A 5.9999998 3.3333472 0 0 0 2.7109375 7.9023438 C 2.6647924 7.8546294 2.6260001 7.8049257 2.5839844 7.7558594 z M 13.408203 7.7675781 C 13.362545 7.8203957 13.31607 7.8725929 13.265625 7.9238281 A 5.9999998 3.3333472 0 0 0 13.408203 7.7675781 z M 12.847656 8.2890625 C 12.805892 8.3208443 12.768323 8.353847 12.724609 8.3847656 A 5.9999998 3.3333472 0 0 0 12.847656 8.2890625 z M 3.171875 8.3066406 A 5.9999998 3.3333472 0 0 0 3.3027344 8.4003906 C 3.2580457 8.3692079 3.2145688 8.3387159 3.171875 8.3066406 z M 12.101562 8.7597656 C 12.061649 8.7805453 12.023345 8.8020899 11.982422 8.8222656 A 5.9999998 3.3333472 0 0 0 12.101562 8.7597656 z M 3.9160156 8.7714844 A 5.9999998 3.3333472 0 0 0 4.0371094 8.8300781 C 3.9966287 8.8102815 3.9555191 8.7918697 3.9160156 8.7714844 z M 11.246094 9.1328125 C 11.191379 9.1524041 11.13599 9.1708317 11.080078 9.1894531 A 5.9999998 3.3333472 0 0 0 11.246094 9.1328125 z M 4.796875 9.1503906 A 5.9999998 3.3333472 0 0 0 4.8984375 9.1816406 C 4.8650547 9.1704196 4.8298299 9.1619599 4.796875 9.1503906 z M 10.25 9.4199219 C 10.206202 9.4297768 10.16149 9.4379719 10.117188 9.4472656 A 5.9999998 3.3333472 0 0 0 10.25 9.4199219 z M 5.7558594 9.421875 A 5.9999998 3.3333472 0 0 0 5.8144531 9.4355469 C 5.7944413 9.4311975 5.7757665 9.4263398 5.7558594 9.421875 z M 6.7851562 9.59375 A 5.9999998 3.3333472 0 0 0 6.90625 9.6074219 C 6.8652875 9.6032266 6.8258253 9.598405 6.7851562 9.59375 z M 9.1542969 9.6035156 C 9.1331253 9.6058082 9.1110936 9.6052534 9.0898438 9.6074219 A 5.9999998 3.3333472 0 0 0 9.1542969 9.6035156 z "
     id="path828" />
  <path
     inkscape:connector-curvature="0"
     style="fill:#b6b6b6;fill-rule:evenodd;fill-opacity:1"
     id="path7"
     d="M 2.0234375,6.671881 C 2.1843627,10.194062 4.7899978,13.000006 8,13.000006 c 3.210002,0 5.815637,-2.805944 5.976562,-6.328125 C 13.669303,8.3527213 11.106602,9.6660216 8,9.6660216 c -3.1066019,0 -5.6693025,-1.3133003 -5.9765625,-2.9941406 z" />
  <path
     style="opacity:0.986928;fill:#ffffff"
     inkscape:connector-curvature="0"
     id="path9"
     d="M 8,3.000006 A 5.9999998,3.3333472 0 0 0 2,6.3339904 5.9999998,3.3333472 0 0 0 8,9.6660216 5.9999998,3.3333472 0 0 0 14,6.3339904 5.9999998,3.3333472 0 0 0 8,3.000006 Z" />
</svg>

<svg xmlns="http://www.w3.org/2000/svg" height="16" width="16"><path d="M8 3a6 3.333 0 00-6 3.334 6 3.333 0 00.305 1.037 2.135 2.135 0 01-.282-.7C2.184 10.195 4.79 13 8 13c3.21 0 5.816-2.806 5.977-6.328-.046.25-.155.49-.295.72A6 3.333 0 0014 6.335 6 3.333 0 008 3zM2.584 7.756a6 3.333 0 00.127.146c-.046-.047-.085-.097-.127-.146zm10.824.012a3.241 3.241 0 01-.142.156 6 3.333 0 00.142-.156zm-.56.521c-.042.032-.08.065-.123.096a6 3.333 0 00.123-.096zm-9.676.018a6 3.333 0 00.13.093 4.577 4.577 0 01-.13-.093zm8.93.453c-.04.02-.079.042-.12.062a6 3.333 0 00.12-.062zm-8.186.011a6 3.333 0 00.121.06l-.121-.06zm7.33.362c-.055.02-.11.038-.166.056a6 3.333 0 00.166-.056zm-6.45.017a6 3.333 0 00.102.032c-.033-.012-.068-.02-.101-.032zm5.454.27c-.044.01-.089.018-.133.027a6 3.333 0 00.133-.027zm-4.494.002a6 3.333 0 00.058.014l-.058-.014zm1.03.172a6 3.333 0 00.12.013l-.12-.013zm2.368.01c-.02.002-.043.001-.064.003a6 3.333 0 00.064-.003z" fill-rule="evenodd" stroke="#000" opacity=".6" stroke-width="2" stroke-linejoin="round"/><path d="M2.023 6.672C2.184 10.194 4.79 13 8 13c3.21 0 5.816-2.806 5.977-6.328-.308 1.68-2.87 2.994-5.977 2.994S2.33 8.353 2.023 6.672z" fill="#b6b6b6" fill-rule="evenodd"/><path d="M8 3a6 3.333 0 00-6 3.334 6 3.333 0 006 3.332 6 3.333 0 006-3.332A6 3.333 0 008 3z" opacity=".987" fill="#fff"/></svg>
